X: 206
T:Jessee The Flour Of Dumblane. JaW.205
M:6/8
L:1/8
Q:60
S:James Winder Ms, Lancashire, 1835-41
R:Air
O:England
A:Wyresdale,Lancashire
H:1/8
Z:vmp.Chris Partington, Aug 2004
K:C
c/d/|e>fe d>ge|c>Bc d>B c/A/|G>AF E<G c|c>de d2c/d/|!
e>fe d>ge|c>Bc dAG E/G/zc|"S'qu's"dAB c2:|!
|:c/d/|e>cd e>ag|g>ec d/e/ cB/c/|d>Bc d>ge|dB>G A G A/B/|!
c>ed e>cd|e>ge f>de|f>ga g<ec|dAB c3:|]
